X:1
T:The Palace of the King
T:Silas Jones Vail
T:The Palace of the King
T:Public Domain
T:Public Domain
T:Public Domain
T:Public Domain
C:Silas Jones Vail
Z:Public Domain
%%score ( 1 2 ) ( 3 4 )
L:1/8
M:4/4
K:C
V:1 treble 
V:2 treble 
V:3 bass 
V:4 bass 
V:1
 [CE]>[DF] | [EG][FA][EG][CE] [Ec]2 [Gc][Gc] | [Ac]>[Ac] [GB][FA] [EG]2 [CE][CE] | %3
w: 1.~’Tis a|good- ly plea- sant land that we|pil- grims jour- ney thro’, And our|
w: 2.~Our Re-|deem- er is the King; what a|sa- cri- fice He made, When He|
 [DF]>[DF] [DF][DF] [DF]<[DF] [Fd]>[Ec] | [FB][FA] [DG]>[DF] [CE]2 [CE][DF] | %5
w: Fa- ther’s con- stant bless- ings fall a-|round us like the dew; But its|
w: pur- chased our re- demp- tion, and His|blood the ran- som paid; In His|
 [EG][FA] [EG]>[CE] [Ec]<[Ec] [Gc][Gc] | [Ac]>[Ac] [GB][FA] [EG]2 [EG][EG] | %7
w: sun- shine and its beau- ty to our|hearts no joy can bring, Like the|
w: cross shall be our glo- ry, to that|bless- èd cross we’ll cling, Till we|
 [FA][FA] [Ac]>[FA] [FA]<[EG] [EG]>[FA] | [EG]<[CE] [B,D]>C C2 | [Ec][Ec] | %10
w: splen- dors that a- wait us in the|pal- ace of the King.|good- ly|
w: reach the gates that o- pen, to the|pal- ace of the King.|see Him|
 [FB]<[FB] [FB][FB] [FB]2 [Fd][Fd] | [Fd]<[Ec] [Ec][Ec] [Ec]2 [Gc][GB] | %12
w: plea- sant land on- ly strang- ers|now are we, For we seek a|
w: bye and bye, hal- le- lu- jah|to His Name! Thro’ the blood of|
 [FA]>[FA] [FA][FA] [FA][FA][FA][FA] | [^Fd]>[Ac] [GB][FA] G2 [CE][D=F] | %14
w: bet- ter coun- try, and ’tis where we|long to be; Yes, we long to|
w: His a- tone- ment, life e- ter- nal|we may claim; We shall cast our|
 [EG]>[FA] [EG][CE] [Ec]<[Ec] [Ec][Gc] | [Ac]>[Ac] [GB][FA] [EG]2 [EG][EG] | %16
w: the an- them that for- ev- er- more|shall ring, From the pure in heart|
w: be- fore Him and our songs of vic-|t’ry sing, When we en- ter in|
 [FA]>[FA] [FA][FA] [FA]<[Ac] [Ac]>[FA] | [EG]<[CE] [B,D]>C C2 ||"^Refrain" [Ec][Ec] | %19
w: made per- fect in the pal- ace of|the King. * * *||
w: tri- umph- ant to the pal- ace of|the King. * * *||
 [FB]<[FB] [FB][FB] [FB]2 [Fd][Fd] | [Fd]<[Ec] [Ec][Ec] [Ec]2 [Gc][GB] | %21
w: ||
w: ||
 [FA]>[FA] [FA][FA] [FA][FA][FA][FA] | [^Fd]>[Ac] [GB][FA] G2 [CE][D=F] | %23
w: ||
w: ||
 [EG]>[FA] [EG][CE] [Ec]<[Ec] [Ec][Gc] | [Ac]>[Ac] [GB][FA] [EG]2 [EG][EG] | %25
w: ||
w: ||
 [FA]>[FA] [FA][FA] [FA]<[Ac] [Ac]>[FA] | [EG]<[CE] [B,D]>C C2 |] %27
w: ||
w: ||
V:2
 x2 | x8 | x8 | x8 | x8 | x8 | x8 | x8 | x7/2 C/ C2 | x2 | x8 | x8 | x8 | x4 G2 x2 | x8 | x8 | x8 | %17
w: ||||||||In this|||||swell||||
w: ||||||||We shall|||||crown||||
 x7/2 C/ C2 || x2 | x8 | x8 | x8 | x4 G2 x2 | x8 | x8 | x8 | x7/2 C/ C2 |] %27
w: ||||||||||
w: ||||||||||
V:3
 [C,G,]>[C,G,] | [C,C][C,C][C,C][C,G,] [C,G,]2 [E,G,][E,C] | %2
w: ~ ~|~ ~ ~ ~ ~ ~ ~|
 [F,C]>[F,C] [F,C][F,C] [C,C]2 [C,G,][C,G,] | %3
w: ~ ~ ~ ~ ~ ~ ~|
 [G,B,]>[G,B,] [G,B,][G,B,] [G,B,]<[G,B,] [G,B,]>[G,C] | %4
w: ~ ~ ~ ~ ~ ~ ~ ~|
 [G,D][G,C] [G,B,]>G, [C,G,]2 [C,G,][C,G,] | [C,C][C,C] [C,C]>[C,G,] [C,G,]<[C,G,] [E,G,][E,C] | %6
w: ~ ~ ~ ~ ~ ~ ~|~ ~ ~ ~ ~ ~ ~ ~|
 [F,C]>[F,C] [F,C][F,C] [C,C]2 [C,C][C,C] | [F,C][F,C] [F,C]>[F,C] [C,C]<[C,C] [C,C]>[F,C] | %8
w: ~ ~ ~ ~ ~ ~ ~|~ ~ ~ ~ ~ ~ ~ ~|
 [G,C]<G, [G,,F,]>[C,E,] [C,E,]2 | [C,G,][C,C] | [G,D]<[G,D] [G,D][G,D] [G,D]2 [G,B,][G,B,] | %11
w: ~ ~ ~ ~ ~|~ ~|~ ~ ~ ~ ~ ~ ~|
 [C,G,]<[C,G,] [C,G,][C,G,] [C,G,]2 [C,G,][E,C] | [F,C]>[F,C] [F,C][F,C] [F,C][F,C][F,C][F,C] | %13
w: ~ ~ ~ ~ ~ ~ ~|~ ~ ~ ~ ~ ~ ~ ~|
 [D,D]>[D,D] [D,D][D,C] [G,B,]2 [C,G,][C,G,] | [C,C]>[C,C] [C,C][C,G,] [C,G,]<[C,G,] [C,G,][E,C] | %15
w: ~ ~ ~ ~ ~ ~ ~|~ ~ ~ ~ ~ ~ ~ ~|
 [F,C]>[F,C] [F,C][F,C] [C,C]2 [C,C][C,C] | [F,C]>[F,C] [F,C][F,C] [F,C]<[F,C] [F,C]>[F,C] | %17
w: ~ ~ ~ ~ ~ ~ ~|~ ~ ~ ~ ~ ~ ~ ~|
 [G,C]<G, [G,,F,]>[C,E,] [C,E,]2 || [C,G,][C,C] | [G,D]<[G,D] [G,D][G,D] [G,D]2 [G,B,][G,B,] | %20
w: ~ ~ ~ O the|ace of|the King, roy- al pal- ace of|
 [C,G,]<[C,G,] [C,G,][C,G,] [C,G,]2 [C,G,][E,C] | [F,C]>[F,C] [F,C][F,C] [F,C][F,C][F,C][F,C] | %22
w: the King; Where our Fa- ther in|His mer- cy all the ran- somed ones|
 [D,D]>[D,D] [D,D][D,C] [G,B,]2 [C,G,][C,G,] | [C,C]>[C,C] [C,C][C,G,] [C,G,]<[C,G,] [C,G,][E,C] | %24
w: will bring; Where our sor- rows and|our tri- als like a dream will pass|
 [F,C]>[F,C] [F,C][F,C] [C,C]2 [C,C][C,C] | [F,C]>[F,C] [F,C][F,C] [F,C]<[F,C] [F,C]>[F,C] | %26
w: a- way, And our souls shall dwell|for- ev- er in the realms of end-|
 [G,C]<G, [G,,F,]>[C,E,] [C,E,]2 |] %27
w: less day. * * *|
V:4
 x2 | x8 | x8 | x8 | x7/2 G,/ x4 | x8 | x8 | x8 | x/ G,3/2 x4 | x2 | x8 | x8 | x8 | x8 | x8 | x8 | %16
w: ||||~||||~||||||||
 x8 | x/ G,3/2 x4 || x2 | x8 | x8 | x8 | x8 | x8 | x8 | x8 | x/ G,3/2 x4 |] %27
w: |pal-||||||||||

